X: 23
T:Fieldtown Processional
% Nottingham Music Database
S:Fieldtown
M:4/4
L:1/4
P:ABA
K:G
P:A
G/2A/2| !segno!  "G"BA BG|"Am"AA A2|"D7"cB/2c/2 Ac|"G"BG "D7"G2|"G"B/2c/2d "C"ef|"G"gd "C"ec|\
"G"BG "D7"AF|"G"G2 G:|
P:B
d|"G"g2 gf|"C"fe e2|"A7"a3/2b/2 ag|"D7"fd d2|"G"gf gf|"C"ed eg|"D"fd "A7"e^c|\
"D7"dc\
%P:D.S.
BA||


